X:82
T:Si Bheag Si Mhor
C:Turlough Carolan
Z:Probably the first tune composed by Carolan.  Si Bheag and Si Mhor
Z:are two hills in Co. Leitrim associated in the local folklore with two 
Z:bands of fairies continually at war with each other. 
R:planxty
M:3/4
I:speed 250
K:D
de|f3ed2|d3ed2|B4 A2|F4 A2|BA Bc d2|e4 de|f4 e2|d4 f2|\
B4 e2|A4 d2|F4 E2|D4 f2|B4 e2|A4 dc|d6-|d4:|*
de|f3 e d2|ed ef a2|b4a2|f4 ed|e4 a2|f4 e2|d4 B2|B4 BA|\
F4 E2|D4 f2|B4 e2|A4 a2|ba gf ed|e4 dc|d6-|d4:|**
<end>
<start>
